flaticon/real-estate/real-estate-2.svg

<svg xmlns="http://www.w3.org/2000/svg" width="32" height="32" viewBox="0 0 24 24">
    <path d="M 22.398438 1.601562 L 13.601562 1.601562 L 13.601562 0.398438 C 13.601562 0.160156 13.441406 0 13.199219 0 L 10.800781 0 C 10.558594 0 10.398438 0.160156 10.398438 0.398438 L 10.398438 1.601562 L 1.601562 1.601562 C 0.71875 1.601562 0 2.320312 0 3.199219 L 0 14 C 0 14.878906 0.71875 15.601562 1.601562 15.601562 L 10.398438 15.601562 L 10.398438 18.800781 C 10.398438 19.761719 10.160156 20.761719 9.71875 21.640625 L 9.710938 21.65625 C 9.414062 21.769531 9.199219 22.0625 9.199219 22.398438 L 9.199219 23.601562 C 9.199219 23.839844 9.359375 24 9.601562 24 L 14.398438 24 C 14.640625 24 14.800781 23.839844 14.800781 23.601562 L 14.800781 22.398438 C 14.800781 22.0625 14.585938 21.769531 14.289062 21.65625 L 14.28125 21.640625 C 13.839844 20.761719 13.601562 19.800781 13.601562 18.800781 L 13.601562 15.601562 L 22.398438 15.601562 C 23.28125 15.601562 24 14.878906 24 14 L 24 3.199219 C 24 2.320312 23.28125 1.601562 22.398438 1.601562 Z M 11.199219 0.800781 L 12.800781 0.800781 L 12.800781 1.601562 L 11.199219 1.601562 Z M 13.359375 21.601562 L 10.640625 21.601562 C 10.960938 20.839844 11.160156 20.039062 11.199219 19.199219 L 12.800781 19.199219 C 12.839844 20.039062 13.039062 20.839844 13.359375 21.601562 Z M 14 23.199219 L 10 23.199219 L 10 22.398438 L 14 22.398438 Z M 12.800781 18.398438 L 11.199219 18.398438 L 11.199219 15.601562 L 12.800781 15.601562 Z M 23.199219 14 C 23.199219 14.441406 22.839844 14.800781 22.398438 14.800781 L 1.601562 14.800781 C 1.160156 14.800781 0.800781 14.441406 0.800781 14 L 0.800781 3.199219 C 0.800781 2.761719 1.160156 2.398438 1.601562 2.398438 L 22.398438 2.398438 C 22.839844 2.398438 23.199219 2.761719 23.199219 3.199219 Z M 23.199219 14"/>
    <path d="M11.160156 5.761719C10.921875 5.519531 10.640625 5.398438 10.320312 5.359375L8.726562 5.210938C8.539062 4.074219 7.546875 3.199219 6.359375 3.199219 5.34375 3.199219 4.425781 3.859375 4.085938 4.820312 2.914062 4.976562 2 5.988281 2 7.199219 2 7.90625 2.308594 8.542969 2.800781 8.984375L2.800781 12.960938C2.800781 13.078125 2.839844 13.199219 2.921875 13.28125L4.121094 14.320312C4.199219 14.359375 4.320312 14.398438 4.398438 14.398438 4.480469 14.398438 4.601562 14.359375 4.640625 14.320312L5.839844 13.28125C5.921875 13.199219 5.960938 13.078125 5.960938 12.960938 5.960938 12.839844 5.921875 12.71875 5.800781 12.640625L5.398438 12.359375 5.878906 11.878906C6.039062 11.71875 6.039062 11.480469 5.878906 11.320312L5.359375 10.800781 5.878906 10.28125C5.960938 10.199219 6 10.121094 6 10L6 8.984375C6.300781 8.714844 6.53125 8.371094 6.667969 7.984375 6.890625 7.960938 7.109375 7.910156 7.3125 7.824219L7.359375 8.320312C7.398438 8.640625 7.519531 8.921875 7.761719 9.160156L10.679688 12.078125C10.761719 12.160156 10.839844 12.199219 10.960938 12.199219 11.078125 12.199219 11.160156 12.160156 11.238281 12.078125L14.078125 9.238281C14.238281 9.078125 14.238281 8.839844 14.078125 8.679688zM4.335938 5.601562C4.375 5.605469 4.417969 5.605469 4.457031 5.601562 5.292969 5.628906 5.972656 6.3125 6 7.148438 5.652344 7.058594 5.355469 6.851562 5.121094 6.558594 5 6.398438 4.71875 6.359375 4.558594 6.480469 4.398438 6.601562 4.359375 6.878906 4.480469 7.039062 4.804688 7.484375 5.285156 7.796875 5.824219 7.929688 5.554688 8.445312 5.019531 8.800781 4.398438 8.800781 3.519531 8.800781 2.800781 8.078125 2.800781 7.199219 2.800781 6.34375 3.484375 5.636719 4.335938 5.601562zM5.238281 9.839844L4.558594 10.519531C4.398438 10.679688 4.398438 10.921875 4.558594 11.078125L5.078125 11.601562 4.558594 12.121094C4.480469 12.199219 4.441406 12.320312 4.441406 12.441406 4.441406 12.558594 4.519531 12.640625 4.601562 12.71875L4.960938 12.960938 4.398438 13.441406 3.601562 12.761719 3.640625 12.761719 3.640625 9.480469C4.160156 9.679688 4.71875 9.679688 5.238281 9.480469zM6.796875 7.148438C6.773438 6.039062 5.988281 5.109375 4.945312 4.863281 5.214844 4.335938 5.75 4 6.359375 4 7.136719 4 7.789062 4.5625 7.929688 5.300781 7.796875 5.363281 7.671875 5.449219 7.558594 5.558594 7.320312 5.839844 7.160156 6.199219 7.199219 6.601562L7.234375 6.960938C7.097656 7.042969 6.953125 7.109375 6.796875 7.148438zM10.921875 11.238281L8.28125 8.601562C8.199219 8.519531 8.121094 8.398438 8.121094 8.28125L7.960938 6.558594C7.960938 6.398438 8 6.28125 8.121094 6.160156 8.238281 6.039062 8.359375 6 8.480469 6 8.519531 6 8.519531 6 8.519531 6L10.238281 6.160156C10.359375 6.160156 10.480469 6.238281 10.558594 6.320312L13.199219 8.960938zM22 6L15.601562 6C15.359375 6 15.199219 6.160156 15.199219 6.398438 15.199219 6.640625 15.359375 6.800781 15.601562 6.800781L22 6.800781C22.238281 6.800781 22.398438 6.640625 22.398438 6.398438 22.398438 6.160156 22.238281 6 22 6zM22 8.398438L18.800781 8.398438C18.558594 8.398438 18.398438 8.558594 18.398438 8.800781 18.398438 9.039062 18.558594 9.199219 18.800781 9.199219L22 9.199219C22.238281 9.199219 22.398438 9.039062 22.398438 8.800781 22.398438 8.558594 22.238281 8.398438 22 8.398438zM15.601562 9.199219L17.199219 9.199219C17.441406 9.199219 17.601562 9.039062 17.601562 8.800781 17.601562 8.558594 17.441406 8.398438 17.199219 8.398438L15.601562 8.398438C15.359375 8.398438 15.199219 8.558594 15.199219 8.800781 15.199219 9.039062 15.359375 9.199219 15.601562 9.199219zM22 10.800781L20 10.800781C19.761719 10.800781 19.601562 10.960938 19.601562 11.199219 19.601562 11.441406 19.761719 11.601562 20 11.601562L22 11.601562C22.238281 11.601562 22.398438 11.441406 22.398438 11.199219 22.398438 10.960938 22.238281 10.800781 22 10.800781zM18.398438 10.800781L15.601562 10.800781C15.359375 10.800781 15.199219 10.960938 15.199219 11.199219 15.199219 11.441406 15.359375 11.601562 15.601562 11.601562L18.398438 11.601562C18.640625 11.601562 18.800781 11.441406 18.800781 11.199219 18.800781 10.960938 18.640625 10.800781 18.398438 10.800781zM18.398438 10.800781"/>
    <path d="M10.121094 7.320312L9.320312 8.121094C9.160156 8.28125 9.160156 8.519531 9.320312 8.679688 9.398438 8.761719 9.480469 8.800781 9.601562 8.800781 9.71875 8.800781 9.800781 8.761719 9.878906 8.679688L10.679688 7.878906C10.839844 7.71875 10.839844 7.480469 10.679688 7.320312 10.519531 7.160156 10.28125 7.160156 10.121094 7.320312zM10.519531 9.878906C10.601562 9.960938 10.679688 10 10.800781 10 10.921875 10 11 9.960938 11.078125 9.878906L11.878906 9.078125C12.039062 8.921875 12.039062 8.679688 11.878906 8.519531 11.71875 8.359375 11.480469 8.359375 11.320312 8.519531L10.519531 9.320312C10.359375 9.480469 10.359375 9.71875 10.519531 9.878906zM10.519531 9.878906"/>
</svg>

<svg xmlns="http://www.w3.org/2000/svg" width="32" height="32" viewBox="0 0 24 24">
    <path d="M22.398 1.602h-8.796V.398c0-.238-.16-.398-.403-.398h-2.398c-.242 0-.403.16-.403.398v1.204H1.602C.719 1.602 0 2.32 0 3.199V14c0 .879.719 1.602 1.602 1.602h8.796V18.8c0 .96-.238 1.96-.68 2.84l-.007.015a.8.8 0 0 0-.512.742v1.204c0 .238.16.398.403.398h4.796c.243 0 .403-.16.403-.398v-1.204a.8.8 0 0 0-.512-.742l-.008-.015a6.299 6.299 0 0 1-.68-2.84v-3.2h8.797C23.281 15.602 24 14.88 24 14V3.2c0-.88-.719-1.598-1.602-1.598zM11.2.8h1.602v.8h-1.602zm2.16 20.8h-2.718c.32-.761.52-1.562.558-2.402h1.602c.039.84.238 1.64.558 2.403zM14 23.2h-4v-.8h4zm-1.2-4.8h-1.6v-2.797h1.6zM23.2 14c0 .441-.36.8-.802.8H1.602C1.16 14.8.8 14.442.8 14V3.2c0-.438.36-.802.8-.802h20.797c.442 0 .801.364.801.801zm0 0"/>
    <path d="M11.16 5.762a1.363 1.363 0 0 0-.84-.403l-1.593-.148a2.409 2.409 0 0 0-2.368-2.012c-1.015 0-1.933.66-2.273 1.621A2.412 2.412 0 0 0 2 7.2c0 .706.309 1.343.8 1.784v3.977c0 .117.04.238.122.32l1.2 1.04c.077.038.198.077.276.077.082 0 .204-.039.243-.078l1.199-1.039a.455.455 0 0 0 .12-.32c0-.121-.038-.242-.16-.32l-.402-.282.48-.48a.385.385 0 0 0 0-.559l-.519-.52.52-.519A.361.361 0 0 0 6 10V8.984c.3-.27.531-.613.668-1 .223-.023.441-.074.644-.16l.047.496c.04.32.16.602.403.84l2.918 2.918c.082.082.16.121.28.121.118 0 .2-.039.278-.12l2.84-2.84a.385.385 0 0 0 0-.56zm-6.824-.16c.039.003.082.003.121 0 .836.027 1.516.71 1.543 1.546a1.654 1.654 0 0 1-.879-.59.432.432 0 0 0-.562-.078.427.427 0 0 0-.079.56c.325.444.805.757 1.344.89a1.61 1.61 0 0 1-1.426.87 1.605 1.605 0 0 1-1.597-1.6c0-.856.683-1.563 1.535-1.598zm.902 4.238l-.68.68a.385.385 0 0 0 0 .558l.52.524-.52.52a.456.456 0 0 0-.117.32c0 .117.079.199.16.277l.36.242-.563.48-.796-.68h.039v-3.28c.52.199 1.078.199 1.597 0zm1.559-2.692a2.41 2.41 0 0 0-1.852-2.285C5.215 4.336 5.75 4 6.36 4c.778 0 1.43.563 1.57 1.3a1.38 1.38 0 0 0-.37.259c-.239.28-.399.64-.36 1.043l.035.359a1.61 1.61 0 0 1-.437.187zm4.125 4.09l-2.64-2.636c-.083-.082-.16-.204-.16-.32L7.96 6.558c0-.16.039-.278.16-.399a.478.478 0 0 1 .36-.16h.039l1.718.16c.121 0 .242.078.32.16L13.2 8.96zm0 0M22 6h-6.398c-.243 0-.403.16-.403.398 0 .243.16.403.403.403H22c.238 0 .398-.16.398-.403 0-.238-.16-.398-.398-.398zm0 0M22 8.398h-3.2c-.241 0-.402.16-.402.403 0 .238.16.398.403.398H22c.238 0 .398-.16.398-.398 0-.242-.16-.403-.398-.403zm0 0M15.602 9.2h1.597c.242 0 .403-.16.403-.4 0-.241-.16-.402-.403-.402h-1.597c-.243 0-.403.16-.403.403 0 .238.16.398.403.398zm0 0M22 10.8h-2c-.238 0-.398.16-.398.4 0 .241.16.402.398.402h2c.238 0 .398-.16.398-.403 0-.238-.16-.398-.398-.398zm0 0M18.398 10.8h-2.796c-.243 0-.403.16-.403.4 0 .241.16.402.403.402h2.796c.243 0 .403-.16.403-.403 0-.238-.16-.398-.403-.398zm0 0"/>
    <path d="M10.121 7.32l-.8.801a.385.385 0 0 0 0 .559c.077.082.16.12.28.12.118 0 .2-.038.278-.12l.8-.801a.385.385 0 0 0 0-.559.385.385 0 0 0-.558 0zm0 0M10.52 9.879c.082.082.16.121.28.121.122 0 .2-.04.278-.121l.8-.8a.385.385 0 0 0 0-.56.385.385 0 0 0-.558 0l-.8.801a.385.385 0 0 0 0 .559zm0 0"/>
</svg>
